icons/input-method.svg

<svg
  width="24"
  height="24"
  viewBox="0 0 24 24"
  xmlns="http://www.w3.org/2000/svg"
  fill="none"
  stroke="currentColor"
  stroke-width="2"
  stroke-linecap="round"
  stroke-linejoin="round"
>
  <path d="M20 4H4v16h16V4z" />
  <path d="M9.25 14l2.25-6h1l2.25 6m-5.5 0l-.75 2m.75-2h5.5m0 0l.75 2" />
</svg>

<svg width="24" height="24" viewBox="0 0 24 24" fill="none" xmlns="http://www.w3.org/2000/svg">
<path d="M20 4H4V20H20V4Z" stroke="#1E293B" stroke-width="2" stroke-linecap="round" stroke-linejoin="round"/>
<path d="M9.25 14L11.5 8H12.5L14.75 14M9.25 14L8.5 16M9.25 14H14.75M14.75 14L15.5 16" stroke="#1E293B" stroke-width="2" stroke-linecap="round" stroke-linejoin="round"/>
</svg>
